X: 1908
T: Uşşak Peşrev
C: Kanposoğlu Mehmet Çelebi
O: Turkey
F: http://compmusic.upf.edu/node/140
N: ussak--pesrev--hafif----kanposoglu_mehmet_celebi
N: makam= ussak
N: form= pesrev
N: usul= hafif = 32/4
M: 32/4
L: 1/16
K: C _2/4B   
Q: 1/4=78
%%MIDI tuningsystem comma53
G2 A B A G ^3/4F2 G4 A4  | G2 A4 d c c B B A A G G ^3/4F  | \
w:  1. HANE  |   | 
G4 A2 B2 c4 d2 e2  | 
w:   | 
d3 c B2 c2 B4 A4  | A4 G2 A2 G4 c2 B2  | \
w:   |   | 
c B A4 G2 A _B A G F4  | 
w:   | 
G3 A _B2 c2 A2 B2 G2 A2  | F2 G2 E2 F2 D E F G A G F E  | \
w:   |   | 
D4 B2 c2 B4 c4  | 
w:   | 
d2 e f e d c d e8  | f3 e f2 g2 a g f e d4  | \
w:   |   | 
e f e d e f g a g f e d c2 B2  | 
w:   | 
c d c B c d e f e d c B A4  | B c B A B c d e d c B A A G G ^3/4F  | 
w:   |   | 
G2 A B A2 B2 c4 d2 e2  | d3 c B2 c2 B4 A4  | \
w:   |   | 
f8 e2 g2 f2 e2  | d3 c d2 e2 d4 e2 f2  | 
w:  TESLİM  |   | 
g2 a2 g2 f2 e2 g2 f2 e2  | d e d c d2 e2 d2 e2 f2 g2  | \
w:   |   | 
z _b a b a g f2 z a g a g f e2  | 
w:   | 
z g f g f e d2 z f e f e d c2  | z e d e d c B2 z d c d c B A2  | 
w:   |   | 
B c B A B c d e d c B A B2 c2  | B3 A G2 A2 G4 A4  | \
w:   |   | 
G3 A _7/8B ^c d e f e d c B A G ^3/4F  | 
w:   | 
G2 f e e2 f2 a g f e d4  | e f e d e f g a g f e d c2 B2  | 
w:   |   | 
c d c B c d e f e d c B A4  | B c B A B c d e d c B A A G G ^3/4F  | 
w:   |   | 
G2 A B A2 B2 c4 d2 e2  | d3 c B2 c2 B4 A4  | \
w:   |   | 
d4 e2 d2 e4 f2 e2  | f3 e f2 g2 f2 g2 f2 e2  | 
w:  2. HANE  |   | 
d2 e f e d c2 d4 e4  | f2 g2 f2 e2 f g f e f4  | \
w:   |   | 
d2 e2 d2 e2 f2 g2 f2 e2  | 
w:   | 
z2 d e d2 e2 f2 g a g f e2  | d2 e f e d c2 d4 e4  | \
w:   |   | 
f2 g2 f2 e2 f g f e f4  | 
w:   | 
d2 e2 d2 c2 B2 c2 d2 e2  | d4 e2 d2 e4 f2 e2  | \
w:   |   | 
f2 e2 f2 g2 f2 g2 f2 e2  | 
w:   | 
z2 _b2 a2 g2 f4 e4  | e4 d2 c2 d2 e2 g2 f2  | \
w:   |   | 
e2 f g f e d2 e3 d d c c B  | 
w:   | 
c4 d e d c d2 e2 f2 g2  | e2 f2 d2 e2 c2 d2 B2 c2  | \
w:   |   | 
A2 B c B A G2 A4 _B4  | 
w:   | 
G3 A _7/8B ^c d e d c B A G4  | f3 e f2 g2 a g f e d4  | \
w:   |   | 
e f e d e f g a g f e d c2 B2  | 
w:   | 
c d c B c d e f e d c B A4  | B c B A B c d e d c B A G4  | 
w:   |   | 
A2 B2 A2 B2 c4 d2 e2  | z2 d e d2 e2 ^3/4f4 g4  | \
w:   |   | 
f8 e2 g2 f2 e2  | d3 c d2 e2 d4 e2 f2  | 
w:  TESLİM  |   | 
g2 a2 g2 f2 e2 g2 f2 e2  | d e d c d2 e2 d2 e2 f2 g2  | \
w:   |   | 
z _b a b a g f2 z a g a g f e2  | 
w:   | 
z g f g f e d2 z f e f e d c2  | z e d e d c B2 z d c d c B A2  | 
w:   |   | 
B c B A B c d e d c B A B2 c2  | B3 A G2 A2 G4 A4  | \
w:   |   | 
G3 A _7/8B ^c d e f e d c B A G ^3/4F  | 
w:   | 
G2 f e e2 f2 a g f e d4  | e f e d e f g a g f e d c2 B2  | 
w:   |   | 
c d c B c d e f e d c B A4  | B c B A B c d e d c B A A G G ^3/4F  | 
w:   |   | 
G2 A B A2 B2 c4 d2 e2  | d3 c B2 c2 B4 A4  | \
w:   |   | 
e4 ^3/4f2 e2 f4 g2 f2  | g2 ^3/4f2 g2 a2 g2 a b a g f2  | 
w:  3. HANE  |   | 
e2 ^3/4f g f e d2 e4 f4  | g2 a2 g2 ^3/4f2 g a g f g2 a2  | \
w:   |   | 
g4 ^3/4f2 g2 a2 b2 c'2 b2  | 
w:   | 
z2 a4 b2 a2 g2 ^3/4f2 e2  | ^3/4f3 e f2 g2 f2 g a g f e2  | \
w:   |   | 
d3 e ^3/4f2 g2 a g f g a c' b a  | 
w:   | 
a4 ^3/4f2 g2 f4 g4  | a6 c'2 b2 a2 g2 ^3/4f2  | \
w:   |   | 
g6 c'2 b2 d'2 c'2 b2  | a b c'4 b a a8  | 
w:   |   | 
a4 e2 f2 e2 a2 g2 f2  | f2 e4 d2 d2 {e}d c d4  | \
w:   |   | 
e2 f g e2 d2 c4 d4  | 
w:   | 
e2 f g f e d2 c3 B A2 g2  | f8 e2 g2 f2 e2  | \
w:   |  TESLİM  | 
d3 c d2 e2 d4 e2 f2  | 
w:   | 
g2 a2 g2 f2 e2 g2 f2 e2  | d e d c d2 e2 d2 e2 f2 g2  | \
w:   |   | 
z _b a b a g f2 z a g a g f e2  | 
w:   | 
z g f g f e d2 z f e f e d c2  | z e d e d c B2 z d c d c B A2  | 
w:   |   | 
B c B A B c d e d c B A B2 c2  | B3 A G2 A2 G4 A4  | \
w:   |   | 
G3 A _7/8B ^c d e f e d c B A G ^3/4F  | 
w:   | 
G2 f e e2 f2 a g f e d4  | e f e d e f g a g f e d c2 B2  | 
w:   |   | 
c d c B c d e f e d c B A4  | B c B A B c d e d c B A A G G ^3/4F  | 
w:   |   | 
G2 A B A2 B2 c4 d2 e2  | d3 c B2 c2 B4 A4  | |


